X: 13
T: Missa Cuiusvis toni (on D) / Kyrie
N: Derived from Ock1004.1a-Missa_Cuiusvis_toni-Kyrie-on_D.krn
C: Johannes Ockeghem
%%abc-version 2.0
%%abcx-abcm2ps-target-version 5.9.1 (29 Sep 2008)
%%abc-creator hum2abc beta
%%abcx-conversion-date 2019/02/17 07:26:13
%%abc-edited-by Jesse Rodin
%%abc-edited-by Jesse Rodin 8-19-2012
%%abcx-initial-encoding-date 2012/08/19/
%%humdrum-veritas 3318874850
%%humdrum-veritas-data 603462869
%%linebreak <none>
%%barnumbers 0
L: 1/4
M: 3/1
Q: 1/2=120
%%staves [1 2 3 4]
V: 1 clef=treble
V: 2 clef=treble-8
V: 3 clef=treble-8
V: 4 clef=bass
K: F
[V:1] D4F3GA2B2 | 
[V:2] d4d3BA2G2 | 
[V:3] z12 | 
[V:4] z12 | 
[V:1] A2B4G2F4 | 
[V:2] z2G2B2c2d4 | 
[V:3] z4z4D4 | 
[V:4] z12 | 
[V:1] z2B4A3FF2 | 
[V:2] _e2d2B2c2d4 | 
[V:3] G6F2D4 | 
[V:4] z12 | 
[V:1] G2B3AA2G3F | 
[V:2] c2d4A2B3A | 
[V:3] E2D2F4E4 | 
[V:4] z12 | 
[V:1] A2F4F2E2G2- | 
[V:2] F2B2A2B2c4 | 
[V:3] D4F4G3A | 
[V:4] D,8C,2B,,2 | 
[V:1] GFEDE2D4^C2 | 
[V:2] d2B3AGFG3F | 
[V:3] B2G4D2E4 | 
[V:4] G,,8z4 | 
[V:1] D12 ||  
[V:2] A12 ||  
[V:3] D12 ||  
[V:4] D,12 ||  
[V:1]  [K:F] [K:clef=treble][M:2/1]A8 | 
[V:2]  [K:F] [K:clef=treble-8][M:2/1]d8- | 
[V:3]  [K:F] [K:clef=treble-8][M:2/1]z8 | 
[V:4]  [K:F] [K:clef=bass][M:2/1]z8 | 
[V:1] B8 | 
[V:2] d8 | 
[V:3] z8 | 
[V:4] z8 | 
[V:1] A4B4- | 
[V:2] c4B4 | 
[V:3] z8 | 
[V:4] z8 | 
[V:1] B2A2F4 | 
[V:2] d8 | 
[V:3] z8 | 
[V:4] z8 | 
[V:1] G6FE | 
[V:2] _e6dc | 
[V:3] C8 | 
[V:4] z8 | 
[V:1] D8 | 
[V:2] B8 | 
[V:3] G8 | 
[V:4] z8 | 
[V:1] z4G4- | 
[V:2] c4B4 | 
[V:3] F4G4 | 
[V:4] z8 | 
[V:1] G2F2G4 | 
[V:2] d8- | 
[V:3] B6AG | 
[V:4] z8 | 
[V:1] A4B4- | 
[V:2] d8- | 
[V:3] F4G4 | 
[V:4] z8 | 
[V:1] B2G2G4- | 
[V:2] d8 | 
[V:3] B8 | 
[V:4] z8 | 
[V:1] G4^F4 | 
[V:2] c6B2 | 
[V:3] A8 | 
[V:4] z8 | 
[V:1] G8 | 
[V:2] d8- | 
[V:3] B6G2 | 
[V:4] G,8 | 
[V:1] F4G4 | 
[V:2] d4B4 | 
[V:3] A4G4 | 
[V:4] D,4E,4 | 
[V:1] A4B4- | 
[V:2] d8 | 
[V:3] F4G4- | 
[V:4] D,4G,,4- | 
[V:1] B4A4 | 
[V:2] e4f4 | 
[V:3] G4A4 | 
[V:4] G,,4F,,4 | 
[V:1] G8 | 
[V:2] d8- | 
[V:3] B6G2 | 
[V:4] G,,8 | 
[V:1] F8 ||  
[V:2] d8 ||  
[V:3] A8 ||  
[V:4] D,8 ||  
[V:1]  [K:F] [K:clef=treble][M:3/1]A4F2B4AG | 
[V:2]  [K:F] [K:clef=treble-8][M:3/1]d6G2B2c2 | 
[V:3]  [K:F] [K:clef=treble-8][M:3/1]z12 | 
[V:4]  [K:F] [K:clef=bass][M:3/1]z12 | 
[V:1] F2GA2GG4^F2 | 
[V:2] d2c4B2A4 | 
[V:3] z12 | 
[V:4] z12 | 
[V:1] G4z2F2F2F2- | 
[V:2] G2B2A2d4cB | 
[V:3] G4D8 | 
[V:4] z12 | 
[V:1] FDD2E2G4F2 | 
[V:2] A2B2c3BG2A2 | 
[V:3] D4C3DE2F2 | 
[V:4] z12 | 
[V:1] E2C2D3B,A,4 | 
[V:2] B2G2F2G2D4 | 
[V:3] G2E2D2G2^F^F2E/^F/ | 
[V:4] z4z4D,4 | 
[V:1] G,2B,3CD3EFE/F/ | 
[V:2] z2D2_E2D3B,C2 | 
[V:3] G3AB4G2F2 | 
[V:4] G,,8B,,2A,,2 | 
[V:1] G2FE2DD4^C2 | 
[V:2] D2E4F2G2E2 | 
[V:3] B2AG2FD2E4 | 
[V:4] G,,2C,4B,,3G,,A,,2 | 
[V:1] D12 |]  
[V:2] F3GB3AA4 |]  
[V:3] D12 |]  
[V:4] z2B,,2G,,G,,2F,,D,,4 |]  



